brandFactory_export/1.Light/Internet_1Light.svg

<?xml version="1.0" encoding="UTF-8"?>
<svg width="24px" height="24px" viewBox="0 0 24 24" version="1.1" xmlns="http://www.w3.org/2000/svg" xmlns:xlink="http://www.w3.org/1999/xlink">
    <title>1.Light/Internet_1Light</title>
    <g id="Symbols" stroke="none" stroke-width="1" fill="none" fill-rule="evenodd">
        <g id="1.Light/Internet_1Light" fill="#5CB615" fill-rule="nonzero">
            <path d="M11.8151261,0.00672268908 C15.5831933,0.00672268908 18.5042017,0.981512605 20.5042017,2.90756303 C22.5747899,4.90420168 23.6268908,7.90252101 23.6268908,11.8184874 C23.6268908,13.643522 23.3985088,15.2653626 22.947568,16.6780527 C22.9500333,16.6930186 22.9512605,16.7093982 22.9512605,16.7260504 C22.9512605,16.8194118 22.9126853,16.9042008 22.8506864,16.9652662 C21.3300779,21.3394497 17.5900089,23.6201681 11.8151261,23.6201681 C4.09411765,23.6201681 0.0100840337,19.5394958 0.0100840337,11.8151261 C0.0100840337,4.0907563 4.0907563,0.00672268908 11.8151261,0.00672268908 Z M22.1109654,17.0626929 L17.6395045,17.0626518 C17.3313743,18.1330161 16.9268533,19.1234271 16.4336134,20 C15.7051632,21.2950226 14.8330826,22.2563807 13.875647,22.841001 C18.0736055,22.3818386 20.826643,20.4474313 22.1109654,17.0626929 Z M11.401084,17.0617227 L6.30379264,17.0624388 C6.58979398,18.0120954 6.95554171,18.8915132 7.39495798,19.6739496 C8.48808386,21.6165721 9.90221184,22.7276464 11.4011819,22.8264079 L11.401084,17.0617227 Z M16.9368421,17.0623254 L12.107084,17.0617227 L12.1075281,22.797821 C13.5069311,22.5916204 14.8207139,21.5002629 15.8453782,19.6739496 C16.2849474,18.8912409 16.6507968,18.0119498 16.9368421,17.0623254 Z M5.60228522,17.0626518 L1.52324571,17.0629885 C2.75733267,20.3137115 5.34641234,22.2275065 9.26828919,22.7799582 C8.34891082,22.1915117 7.51073853,21.2515837 6.80672269,20 C6.31482319,19.1234271 5.9105736,18.1330161 5.60228522,17.0626518 Z M5.26228306,7.91844984 L1.10670753,7.91877032 C0.824076357,9.07937226 0.682352941,10.3784211 0.682352941,11.8151261 C0.682352941,13.5389528 0.886385416,15.064608 1.29316778,16.3906808 L5.42399342,16.3910424 C5.07461375,14.9566359 4.8907563,13.3985702 4.8907563,11.7915966 C4.8907563,10.4521382 5.01786567,9.14665956 5.26228306,7.91844984 Z M11.401084,7.91872269 L5.95061046,7.91857818 C5.69804657,9.14044576 5.56638655,10.4469203 5.56638655,11.7915966 C5.56638655,13.4051612 5.75639362,14.9655632 6.11775985,16.3907518 L11.401084,16.3897227 L11.401084,7.91872269 Z M17.2894031,7.91838921 L12.107084,7.91872269 L12.107084,16.3897227 L17.1228309,16.3908966 C17.4840318,14.9664995 17.6739496,13.4066009 17.6739496,11.7915966 C17.6739496,10.4478628 17.5421775,9.14099782 17.2894031,7.91838921 Z M22.5287062,7.91850238 L17.9769821,7.91844984 C18.2218412,9.14665956 18.3495798,10.4521382 18.3495798,11.7915966 C18.3495798,13.3985702 18.1666281,14.9566359 17.8176494,16.3910424 L22.3407099,16.3910693 C22.7473322,15.0650479 22.9512628,13.5393063 22.9512628,11.8151261 C22.9519158,10.3781821 22.8108002,9.07906881 22.5287062,7.91850238 Z M9.18195061,0.859040763 C5.04324549,1.46825658 2.40449374,3.60652916 1.29084467,7.24668123 L5.40961169,7.24627482 C5.73339701,5.89640086 6.20377218,4.6547412 6.80672269,3.58319328 C7.4885585,2.37104072 8.29623073,1.45121584 9.18195061,0.859040763 Z M12.107886,0.785205117 L12.107084,7.24672269 L17.1362453,7.24674205 C16.8290456,6.01747664 16.3947965,4.88755264 15.8453782,3.9092437 C14.8205968,2.0797076 13.5093334,0.990700577 12.107886,0.785205117 Z M13.9604928,0.795462125 L14.049314,0.852988988 C14.9385908,1.44494058 15.7494505,2.36690368 16.4336134,3.58319328 C17.0349255,4.6547412 17.5052595,5.89640086 17.8294331,7.24627482 L22.3448332,7.24629497 C21.1887492,3.46218422 18.3834115,1.30233864 13.9604928,0.795462125 Z M7.39495798,3.9092437 C6.84538969,4.88781972 6.41105341,6.01736427 6.10383925,7.24658004 L11.401084,7.24672269 L11.4011613,0.756785388 C9.90191487,0.855546914 8.48487822,1.96662117 7.39495798,3.9092437 Z" id="Internet_1Light"></path>
        </g>
    </g>
</svg>

<svg width="24" height="24" viewBox="0 0 24 24" xmlns="http://www.w3.org/2000/svg"><path d="M11.815.007c3.768 0 6.69.975 8.69 2.9 2.07 1.997 3.122 4.996 3.122 8.911 0 1.826-.228 3.447-.68 4.86a.335.335 0 01-.097.287c-1.52 4.374-5.26 6.655-11.035 6.655C4.095 23.62.01 19.54.01 11.815.01 4.091 4.09.007 11.815.007zm10.296 17.056H17.64A13.763 13.763 0 0116.434 20c-.729 1.295-1.6 2.256-2.558 2.841 4.198-.46 6.95-2.394 8.235-5.778zm-10.71-.001H6.304c.286.95.652 1.83 1.091 2.612 1.093 1.943 2.507 3.054 4.006 3.152v-5.764zm5.536 0h-4.83v5.736c1.4-.206 2.714-1.298 3.738-3.124.44-.783.806-1.662 1.092-2.612zm-11.335 0l-4.079.001c1.234 3.25 3.823 5.165 7.745 5.717-.92-.588-1.757-1.528-2.461-2.78a13.839 13.839 0 01-1.205-2.937zm-.34-9.144H1.107C.824 9.08.682 10.379.682 11.816c0 1.724.204 3.25.611 4.576h4.131a19.536 19.536 0 01-.533-4.6c0-1.339.127-2.644.371-3.873zm6.14 0H5.95a19.208 19.208 0 00-.385 3.874c0 1.613.19 3.174.552 4.599l5.283-.001V7.919zm5.887 0h-5.182v8.472h5.016c.361-1.424.55-2.983.55-4.598 0-1.344-.13-2.651-.384-3.874zm5.24 0h-4.552a19.88 19.88 0 01.373 3.874c0 1.607-.183 3.165-.532 4.599h4.523c.406-1.326.61-2.852.61-4.576 0-1.437-.14-2.736-.422-3.896zM9.182.86c-4.139.61-6.778 2.748-7.891 6.388H5.41c.323-1.35.794-2.592 1.397-3.664.682-1.212 1.49-2.132 2.375-2.724zm2.926-.074v6.462h5.028c-.307-1.23-.741-2.36-1.29-3.338C14.82 2.08 13.508.991 12.107.785zm1.852.01l.09.058c.889.592 1.7 1.514 2.384 2.73.6 1.072 1.071 2.313 1.395 3.663h4.516c-1.156-3.784-3.962-5.944-8.385-6.45zM7.395 3.91c-.55.979-.984 2.108-1.291 3.338H11.4V.757c-1.5.099-2.916 1.21-4.006 3.152z" fill="#5CB615" fill-rule="nonzero"/></svg>
